images/zhuyin/21.svg

<svg width="50" height="50" viewBox="0 0 50 50" fill="none" xmlns="http://www.w3.org/2000/svg">
<path d="M24.25 15.7812C24.4688 15.7812 24.8984 16.0547 25.5391 16.6016C26.1953 17.1953 26.5234 17.6719 26.5234 18.0312C26.5234 18.2344 26.2344 18.7578 25.6562 19.6016C24.5156 21.4609 23.3516 23.4766 22.1641 25.6484C20.5547 28.6172 19.75 30.2422 19.75 30.5234C19.75 30.6953 19.8438 30.7812 20.0312 30.7812L29.875 28.4375C29.25 27.1562 28.9375 26.4453 28.9375 26.3047C28.9375 26.1641 28.9688 26.0938 29.0312 26.0938C29.1562 26.0938 29.5625 26.3203 30.25 26.7734C31.2656 27.5078 32.0234 28.2812 32.5234 29.0938C33.0078 29.8438 33.25 30.7812 33.25 31.9062C33.25 32.2188 33.1797 32.4688 33.0391 32.6562C32.9609 32.7812 32.8438 32.8438 32.6875 32.8438C32.4688 32.8438 32.25 32.7266 32.0312 32.4922C31.7344 32.1797 31.1953 31.2031 30.4141 29.5625L30.3906 29.5391C27.25 30.3203 24.2969 31.2188 21.5312 32.2344C20.3281 32.6719 19.5703 33.0156 19.2578 33.2656C18.9141 33.4844 18.7031 33.5938 18.625 33.5938C18.3594 33.5938 17.9766 33.3672 17.4766 32.9141C16.7422 32.2266 16.375 31.7422 16.375 31.4609C16.375 31.1641 16.5391 30.9141 16.8672 30.7109C17.3828 30.4141 18.2656 29.2266 19.5156 27.1484C20.8906 24.9609 21.9688 22.8438 22.75 20.7969C23.4688 18.9219 23.8281 17.5625 23.8281 16.7188C23.8594 16.0938 24 15.7812 24.25 15.7812Z" fill="#333333"/>
<path d="M25.5391 16.6016L25.8745 16.2308L25.8692 16.226L25.8637 16.2213L25.5391 16.6016ZM25.6562 19.6016L25.2438 19.3189L25.2367 19.3294L25.2301 19.3401L25.6562 19.6016ZM22.1641 25.6484L21.7254 25.4086L21.7245 25.4101L22.1641 25.6484ZM20.0312 30.7812V31.2812H20.09L20.1471 31.2677L20.0312 30.7812ZM29.875 28.4375L29.9908 28.9239L30.5981 28.7793L30.3244 28.2183L29.875 28.4375ZM30.25 26.7734L30.543 26.3683L30.5342 26.3619L30.5252 26.356L30.25 26.7734ZM32.5234 29.0938L32.0975 29.3559L32.1034 29.365L32.5234 29.0938ZM33.0391 32.6562L32.6391 32.3563L32.6263 32.3732L32.6151 32.3913L33.0391 32.6562ZM32.0312 32.4922L32.3968 32.151L32.3937 32.1478L32.0312 32.4922ZM30.4141 29.5625L30.8655 29.3475L30.8285 29.2698L30.7676 29.2089L30.4141 29.5625ZM30.3906 29.5391L30.7442 29.1855L30.5443 28.9856L30.2699 29.0539L30.3906 29.5391ZM21.5312 32.2344L21.7021 32.7043L21.7036 32.7037L21.5312 32.2344ZM19.2578 33.2656L19.5263 33.6875L19.5491 33.6729L19.5702 33.6561L19.2578 33.2656ZM17.4766 32.9141L17.1348 33.2791L17.1408 33.2846L17.4766 32.9141ZM16.8672 30.7109L16.6177 30.2776L16.6108 30.2816L16.604 30.2858L16.8672 30.7109ZM19.5156 27.1484L19.0922 26.8823L19.0872 26.8907L19.5156 27.1484ZM22.75 20.7969L22.2831 20.6179L22.2829 20.6186L22.75 20.7969ZM23.8281 16.7188L23.3287 16.6938L23.3281 16.7063V16.7188H23.8281ZM24.25 16.2812C24.2096 16.2812 24.2068 16.2711 24.2593 16.2932C24.306 16.3129 24.3746 16.3488 24.4679 16.4082C24.6545 16.5269 24.902 16.7151 25.2144 16.9818L25.8637 16.2213C25.5355 15.9411 25.2478 15.7192 25.0048 15.5645C24.8832 15.4871 24.7633 15.4205 24.6479 15.3718C24.5383 15.3256 24.3997 15.2812 24.25 15.2812V16.2812ZM25.2036 16.9723C25.5164 17.2553 25.7318 17.4936 25.8655 17.6878C26.0042 17.8893 26.0234 17.9975 26.0234 18.0312H27.0234C27.0234 17.7056 26.8786 17.3959 26.6892 17.1207C26.4948 16.8384 26.218 16.5415 25.8745 16.2308L25.2036 16.9723ZM26.0234 18.0312C26.0234 17.9842 26.035 17.9826 26.0047 18.0588C25.9792 18.1228 25.9358 18.2135 25.8689 18.3345C25.7357 18.5757 25.5292 18.9024 25.2438 19.3189L26.0687 19.8842C26.3615 19.4569 26.5885 19.1 26.7443 18.8179C26.822 18.6772 26.887 18.5461 26.9338 18.4285C26.9758 18.323 27.0234 18.1799 27.0234 18.0312H26.0234ZM25.2301 19.3401C24.0845 21.2074 22.9163 23.2303 21.7254 25.4086L22.6028 25.8883C23.7868 23.7228 24.9467 21.7144 26.0824 19.863L25.2301 19.3401ZM21.7245 25.4101C20.9189 26.8962 20.3119 28.051 19.9054 28.8719C19.7026 29.2815 19.5466 29.6142 19.4402 29.8661C19.3873 29.9916 19.3436 30.1041 19.3123 30.2C19.2866 30.279 19.25 30.4017 19.25 30.5234H20.25C20.25 30.5749 20.2386 30.5852 20.2631 30.5099C20.2821 30.4516 20.3139 30.3678 20.3615 30.255C20.4563 30.0304 20.6021 29.7185 20.8016 29.3156C21.1998 28.5115 21.7998 27.3694 22.6036 25.8867L21.7245 25.4101ZM19.25 30.5234C19.25 30.6982 19.2997 30.9178 19.4825 31.0854C19.657 31.2454 19.8707 31.2812 20.0312 31.2812V30.2812C20.0043 30.2812 20.0774 30.2742 20.1582 30.3482C20.2472 30.4298 20.25 30.5206 20.25 30.5234H19.25ZM20.1471 31.2677L29.9908 28.9239L29.7592 27.9511L19.9154 30.2948L20.1471 31.2677ZM30.3244 28.2183C30.0128 27.5796 29.7819 27.0885 29.6296 26.7422C29.5532 26.5683 29.4993 26.4371 29.4655 26.3448C29.4484 26.2984 29.4389 26.2683 29.4341 26.2512C29.4263 26.2227 29.4375 26.2509 29.4375 26.3047H28.4375C28.4375 26.3936 28.4585 26.4748 28.4702 26.5171C28.485 26.5709 28.5047 26.6293 28.5267 26.6893C28.571 26.81 28.6343 26.963 28.7141 27.1446C28.8744 27.5091 29.1122 28.0142 29.4256 28.6567L30.3244 28.2183ZM29.4375 26.3047C29.4375 26.2559 29.4453 26.2878 29.4178 26.3496C29.4015 26.3863 29.3648 26.451 29.2902 26.5069C29.2095 26.5675 29.1161 26.5938 29.0312 26.5938V25.5938C28.9151 25.5938 28.7944 25.6288 28.6902 25.7069C28.5922 25.7805 28.536 25.8715 28.504 25.9434C28.4453 26.0755 28.4375 26.2128 28.4375 26.3047H29.4375ZM29.0312 26.5938C28.9511 26.5938 28.9168 26.5685 28.9816 26.5962C29.0251 26.6147 29.0919 26.6478 29.1862 26.7004C29.3733 26.8047 29.6349 26.9668 29.9748 27.1909L30.5252 26.356C30.1776 26.1269 29.8923 25.9492 29.6732 25.827C29.5643 25.7663 29.4632 25.7144 29.3739 25.6763C29.3059 25.6473 29.1739 25.5938 29.0312 25.5938V26.5938ZM29.957 27.1786C30.9353 27.886 31.641 28.6138 32.0976 29.3558L32.9493 28.8317C32.4059 27.9487 31.596 27.1297 30.543 26.3683L29.957 27.1786ZM32.1034 29.365C32.5235 30.0155 32.75 30.8526 32.75 31.9062H33.75C33.75 30.7099 33.4921 29.672 32.9435 28.8225L32.1034 29.365ZM32.75 31.9062C32.75 32.1464 32.6962 32.2801 32.6391 32.3563L33.4391 32.9562C33.6632 32.6574 33.75 32.2911 33.75 31.9062H32.75ZM32.6151 32.3913C32.6155 32.3906 32.619 32.3851 32.6269 32.3776C32.6349 32.3698 32.6453 32.3621 32.6573 32.3557C32.6829 32.342 32.698 32.3438 32.6875 32.3438V33.3438C33.0037 33.3438 33.2871 33.2027 33.4631 32.9212L32.6151 32.3913ZM32.6875 32.3438C32.6612 32.3438 32.5654 32.3316 32.3968 32.151L31.6657 32.8333C31.9346 33.1215 32.2763 33.3438 32.6875 33.3438V32.3438ZM32.3937 32.1478C32.2951 32.044 32.1135 31.7755 31.842 31.2838C31.5794 30.8079 31.2541 30.1637 30.8655 29.3475L29.9626 29.7775C30.3552 30.602 30.6902 31.2663 30.9666 31.767C31.2342 32.2519 31.4705 32.6279 31.6688 32.8366L32.3937 32.1478ZM30.7676 29.2089L30.7442 29.1855L30.0371 29.8926L30.0605 29.9161L30.7676 29.2089ZM30.2699 29.0539C27.1135 29.839 24.143 30.7426 21.3589 31.765L21.7036 32.7037C24.4508 31.6949 27.3865 30.8016 30.5113 30.0243L30.2699 29.0539ZM21.3604 31.7645C20.7524 31.9856 20.249 32.1858 19.854 32.365C19.4688 32.5397 19.1531 32.7091 18.9455 32.8752L19.5702 33.6561C19.675 33.5722 19.8945 33.4447 20.2671 33.2757C20.6299 33.1111 21.107 32.9207 21.7021 32.7043L21.3604 31.7645ZM18.9894 32.8438C18.8225 32.95 18.698 33.023 18.6116 33.0678C18.5681 33.0904 18.5426 33.1014 18.5315 33.1056C18.5263 33.1076 18.5302 33.1058 18.5413 33.1031C18.55 33.1009 18.5806 33.0938 18.625 33.0938V34.0938C18.7389 34.0938 18.837 34.0592 18.8854 34.0409C18.9467 34.0177 19.0101 33.9877 19.072 33.9556C19.1965 33.891 19.3494 33.8 19.5263 33.6875L18.9894 32.8438ZM18.625 33.0938C18.6285 33.0938 18.6115 33.0942 18.5687 33.0793C18.5265 33.0645 18.4684 33.038 18.3933 32.9935C18.2417 32.9038 18.0488 32.7578 17.8123 32.5436L17.1408 33.2846C17.4044 33.5234 17.6529 33.7173 17.884 33.8541C18.1064 33.9857 18.361 34.0938 18.625 34.0938V33.0938ZM17.8183 32.5491C17.4602 32.2139 17.2079 31.9429 17.0488 31.7331C16.9694 31.6284 16.9213 31.5493 16.8947 31.4937C16.8661 31.4342 16.875 31.4281 16.875 31.4609H15.875C15.875 31.6344 15.9298 31.7943 15.993 31.9262C16.0582 32.0621 16.1477 32.1998 16.2519 32.3372C16.4601 32.6118 16.7585 32.9268 17.1349 33.2791L17.8183 32.5491ZM16.875 31.4609C16.875 31.3889 16.8994 31.279 17.1304 31.1361L16.604 30.2858C16.1787 30.5491 15.875 30.9392 15.875 31.4609H16.875ZM17.1167 31.1442C17.4747 30.9381 17.8785 30.4862 18.3173 29.896C18.7726 29.2836 19.3153 28.4516 19.9441 27.4062L19.0872 26.8907C18.466 27.9234 17.9423 28.7243 17.5148 29.2993C17.0708 29.8966 16.7753 30.1869 16.6177 30.2776L17.1167 31.1442ZM19.9389 27.4145C21.3284 25.2041 22.4223 23.0575 23.2171 20.9752L22.2829 20.6186C21.5152 22.63 20.4529 24.7178 19.0923 26.8824L19.9389 27.4145ZM23.2169 20.9758C23.9355 19.1011 24.3281 17.6644 24.3281 16.7188H23.3281C23.3281 17.4606 23.002 18.7426 22.2831 20.6179L23.2169 20.9758ZM24.3275 16.7437C24.3422 16.4507 24.3813 16.2911 24.413 16.2208C24.427 16.1896 24.427 16.205 24.3954 16.2303C24.3556 16.2621 24.3011 16.2812 24.25 16.2812V15.2812C23.8546 15.2812 23.6168 15.5533 23.5011 15.8104C23.3921 16.0526 23.3453 16.3618 23.3287 16.6938L24.3275 16.7437Z" fill="#333333"/>
</svg>

<svg xmlns="http://www.w3.org/2000/svg" width="50" height="50" fill="none"><path fill="#333" d="M24.25 15.781c.219 0 .648.274 1.29.82.655.594.983 1.07.983 1.43 0 .203-.289.727-.867 1.57a140.393 140.393 0 0 0-3.492 6.047c-1.61 2.97-2.414 4.594-2.414 4.875 0 .172.094.258.281.258l9.844-2.343c-.625-1.282-.938-1.993-.938-2.133 0-.14.032-.211.094-.211.125 0 .532.226 1.219.68 1.016.734 1.773 1.507 2.273 2.32.485.75.727 1.687.727 2.812 0 .313-.07.563-.21.75a.387.387 0 0 1-.352.188c-.22 0-.438-.117-.657-.352-.297-.312-.836-1.289-1.617-2.93l-.023-.023a85.76 85.76 0 0 0-8.86 2.695c-1.203.438-1.96.782-2.273 1.032-.344.218-.555.328-.633.328-.266 0-.648-.227-1.148-.68-.735-.687-1.102-1.172-1.102-1.453 0-.297.164-.547.492-.75.516-.297 1.399-1.484 2.649-3.563 1.375-2.187 2.453-4.304 3.234-6.351.719-1.875 1.078-3.235 1.078-4.078.031-.625.172-.938.422-.938Z"/><path fill="#333" d="m25.54 16.602.335-.371-.006-.005-.005-.005-.325.38Zm.116 3-.412-.283-.007.01-.007.011.426.262Zm-3.492 6.046-.439-.24v.002l.44.238Zm-2.133 5.133v.5h.059l.057-.013-.116-.487Zm9.844-2.343.116.486.607-.145-.274-.56-.449.218Zm.375-1.665.293-.405-.009-.006-.009-.006-.275.417Zm2.273 2.32-.426.263.006.009.42-.271Zm.516 3.563-.4-.3-.013.017-.01.018.423.265Zm-1.008-.164.366-.341-.003-.003-.363.344Zm-1.617-2.93.451-.215-.037-.077-.06-.061-.354.354Zm-.023-.023.353-.354-.2-.2-.274.069.12.485Zm-8.86 2.695.171.47h.002l-.173-.47Zm-2.273 1.032.268.422.023-.015.021-.017-.312-.39Zm-1.781-.352-.342.365.006.006.336-.37Zm-.61-2.203-.25-.433-.006.004-.007.004.263.425Zm2.649-3.563-.424-.266-.005.009.429.257Zm3.234-6.351-.467-.18v.002l.467.178Zm1.078-4.078-.5-.025v.025h.5Zm.422-.438c-.04 0-.043-.01.01.012.046.02.115.056.208.115a7.1 7.1 0 0 1 .746.574l.65-.76a8.057 8.057 0 0 0-.86-.658 2.46 2.46 0 0 0-.356-.192 1.036 1.036 0 0 0-.398-.09v1Zm.954.691c.312.283.528.522.662.716.138.201.157.31.157.343h1c0-.325-.144-.635-.334-.91a5.33 5.33 0 0 0-.814-.89l-.671.741Zm.82 1.06c0-.048.011-.05-.02.027a2.56 2.56 0 0 1-.135.275c-.133.242-.34.568-.625.985l.825.565c.293-.427.52-.784.675-1.066.078-.14.143-.272.19-.39a1.1 1.1 0 0 0 .09-.397h-1Zm-.794 1.308a140.632 140.632 0 0 0-3.505 6.069l.878.48a139.894 139.894 0 0 1 3.48-6.026l-.853-.523Zm-3.506 6.07a113.66 113.66 0 0 0-1.819 3.462c-.202.41-.358.742-.465.994a4.424 4.424 0 0 0-.128.334 1.084 1.084 0 0 0-.062.323h1c0 .052-.011.062.013-.013a3.43 3.43 0 0 1 .098-.255c.095-.225.241-.537.44-.94.399-.803.999-1.946 1.803-3.428l-.88-.477Zm-2.474 5.113c0 .175.05.395.233.562.174.16.388.196.548.196v-1c-.027 0 .046-.007.127.067a.265.265 0 0 1 .092.175h-1Zm.897.745 9.844-2.344-.232-.973-9.844 2.344.232.973Zm10.177-3.05a44.203 44.203 0 0 1-.694-1.476 7.297 7.297 0 0 1-.165-.397 1.307 1.307 0 0 1-.03-.094c-.009-.028.003 0 .003.054h-1c0 .089.02.17.032.212.015.054.035.112.057.172.044.121.107.274.187.456.16.364.398.87.712 1.512l.898-.439Zm-.887-1.913c0-.05.008-.017-.02.045a.433.433 0 0 1-.387.244v-1a.567.567 0 0 0-.526.35.892.892 0 0 0-.067.36h1Zm-.406.289c-.08 0-.114-.026-.05.002.044.019.11.052.205.104.187.105.449.267.789.49l.55-.834c-.347-.23-.633-.407-.852-.529a3.281 3.281 0 0 0-.3-.15.898.898 0 0 0-.342-.083v1Zm.926.585c.978.707 1.684 1.435 2.14 2.177l.852-.524c-.543-.883-1.353-1.702-2.406-2.464l-.586.81Zm2.146 2.186c.42.65.647 1.488.647 2.541h1c0-1.196-.258-2.234-.806-3.083l-.84.542Zm.647 2.541c0 .24-.054.374-.11.45l.8.6c.223-.299.31-.665.31-1.05h-1Zm-.135.485s.004-.006.012-.013a.135.135 0 0 1 .03-.022c.026-.014.041-.012.03-.012v1c.317 0 .6-.141.776-.423l-.848-.53Zm.072-.047c-.026 0-.122-.012-.29-.193l-.731.682c.269.288.61.51 1.021.51v-1Zm-.293-.196c-.099-.104-.28-.373-.552-.864a37.896 37.896 0 0 1-.976-1.936l-.903.43a38.77 38.77 0 0 0 1.004 1.989c.267.485.504.86.702 1.07l.725-.69Zm-1.626-2.94-.024-.022-.707.707.024.023.707-.707Zm-.498-.154a86.24 86.24 0 0 0-8.911 2.711l.345.939a85.269 85.269 0 0 1 8.807-2.68l-.241-.97Zm-8.91 2.71c-.608.222-1.111.422-1.506.601-.385.175-.7.344-.909.51l.625.781c.105-.084.325-.211.697-.38.363-.165.84-.355 1.435-.572l-.342-.94Zm-2.37 1.08a5.31 5.31 0 0 1-.378.224.838.838 0 0 1-.08.038l.01-.003a.35.35 0 0 1 .083-.01v1a.744.744 0 0 0 .26-.052 1.79 1.79 0 0 0 .187-.085c.125-.065.277-.156.454-.269l-.537-.843Zm-.365.25c.003 0-.014 0-.056-.015a1.014 1.014 0 0 1-.176-.086 3.8 3.8 0 0 1-.58-.45l-.672.742c.263.238.512.432.743.57.222.13.477.239.741.239v-1Zm-.807-.545a6.984 6.984 0 0 1-.77-.816 1.468 1.468 0 0 1-.153-.24c-.029-.059-.02-.065-.02-.032h-1c0 .173.055.333.118.465.065.136.155.274.259.411.208.275.507.59.883.942l.683-.73Zm-.943-1.088c0-.072.024-.182.255-.325l-.526-.85c-.425.263-.729.653-.729 1.175h1Zm.242-.317c.358-.206.761-.658 1.2-1.248.456-.612.998-1.444 1.627-2.49l-.857-.515c-.621 1.032-1.145 1.833-1.572 2.408-.444.598-.74.888-.897.979l.499.866Zm2.822-3.73c1.39-2.21 2.483-4.357 3.278-6.439l-.934-.356c-.768 2.011-1.83 4.099-3.19 6.263l.846.532Zm3.278-6.438c.719-1.875 1.111-3.312 1.111-4.257h-1c0 .742-.326 2.024-1.045 3.899l.934.358Zm1.11-4.232c.015-.293.054-.453.086-.523.014-.031.014-.016-.018.01a.24.24 0 0 1-.145.05v-1c-.395 0-.633.272-.749.53-.109.242-.156.55-.172.883l.998.05Z"/></svg>
